X:511
T:B511A-  When the King Enjoys His Own Again
Q:1/4=120
L:1/4
M:C|
K:C
AAc3/2c/|d/e/f/g/ed/e/|fABe|d3/2c/4d/4c2:|\
eB/c/dG|d/c/d/e/dG|d/c/d/e/dc/B/|A3/2G/4A/4G2|\
gg/f/ed/c/|d/e/f/g/ed/e/|fABe|d3/2c/4d/4c2|]

